;FLAVOR:Marlin
;TIME:1188
;Filament used: 0.590459m
;Layer height: 0.2
;MINX:95.51
;MINY:105.786
;MINZ:0.2
;MAXX:126.183
;MAXY:132.392
;MAXZ:12.6
;Generated with Cura_SteamEngine 4.13.1
M140 S60
M105
M190 S60
M104 S200
M105
M109 S200
M82 ;absolute extrusion mode
; Ender 3 Custom Start G-code
G92 E0 ; Reset Extruder
G28 ; Home all axes
G1 Z2.0 F3000 ; Move Z Axis up little to prevent scratching of Heat Bed
G1 X0.1 Y20 Z0.3 F5000.0 ; Move to start position
G1 X0.1 Y200.0 Z0.3 F1500.0 E15 ; Draw the first line
G1 X0.4 Y200.0 Z0.3 F5000.0 ; Move to side a little
G1 X0.4 Y20 Z0.3 F1500.0 E30 ; Draw the second line
G92 E0 ; Reset Extruder
G1 Z2.0 F3000 ; Move Z Axis up little to prevent scratching of Heat Bed
G1 X5 Y20 Z0.3 F5000.0 ; Move over to prevent blob squish
G92 E0
G92 E0
G1 F1500 E-6.5
;LAYER_COUNT:63
;LAYER:0
M107
G0 F6000 X98.246 Y108.926 Z0.2
;TYPE:SKIRT
G1 F1500 E0
G1 F1200 X98.854 Y108.423 E0.02625
G1 X99.51 Y107.983 E0.05252
G1 X100.207 Y107.612 E0.07878
G1 X100.938 Y107.313 E0.10505
G1 X101.696 Y107.09 E0.13133
G1 X102.472 Y106.945 E0.15758
G1 X103.259 Y106.878 E0.18385
G1 X104.048 Y106.892 E0.2101
G1 X104.832 Y106.985 E0.23636
G1 X105.603 Y107.158 E0.26264
G1 X106.352 Y107.407 E0.28889
G1 X107.073 Y107.731 E0.31518
G1 X107.756 Y108.125 E0.34141
G1 X108.397 Y108.587 E0.36769
G1 X108.793 Y108.927 E0.38505
G1 X119.289 Y118.559 E0.85886
G1 X119.843 Y119.122 E0.88514
G1 X120.337 Y119.738 E0.9114
G1 X120.767 Y120.4 E0.93765
G1 X121.127 Y121.103 E0.96392
G1 X121.414 Y121.839 E0.9902
G1 X121.626 Y122.599 E1.01644
G1 X121.76 Y123.378 E1.04273
G1 X121.814 Y124.165 E1.06897
G1 X121.788 Y124.955 E1.09526
G1 X121.683 Y125.737 E1.1215
G1 X121.499 Y126.505 E1.14777
G1 X121.238 Y127.251 E1.17405
G1 X120.903 Y127.966 E1.20032
G1 X120.498 Y128.644 E1.22658
G1 X120.026 Y129.277 E1.25285
G1 X119.492 Y129.859 E1.27912
G1 X119.012 Y130.295 E1.30068
G1 X118.831 Y130.446 E1.30852
G1 X118.199 Y130.921 E1.33482
G1 X117.524 Y131.329 E1.36105
G1 X117.126 Y131.528 E1.37585
G1 X116.937 Y131.616 E1.38279
G1 X116.206 Y131.913 E1.40903
G1 X115.393 Y132.147 E1.43717
G1 X115.193 Y132.193 E1.44399
G1 X114.416 Y132.33 E1.47024
G1 X113.482 Y132.391 E1.50137
G1 X113.271 Y132.392 E1.50838
G1 X112.482 Y132.356 E1.53465
G1 X111.639 Y132.227 E1.56302
G1 X111.438 Y132.185 E1.56985
G1 X110.674 Y131.985 E1.59612
G1 X109.869 Y131.679 E1.62476
G1 X109.682 Y131.596 E1.63156
G1 X108.977 Y131.24 E1.65783
G1 X108.282 Y130.792 E1.68533
G1 X108.106 Y130.665 E1.69255
G1 X107.398 Y130.088 E1.72293
G1 X98.708 Y122.118 E2.11511
G1 X98.56 Y121.979 E2.12187
G1 X98.205 Y121.636 E2.13829
G1 X97.497 Y120.853 E2.1734
G1 X97.308 Y120.613 E2.18356
G1 X96.852 Y119.968 E2.20983
G1 X96.302 Y118.941 E2.24858
G1 X96.218 Y118.751 E2.25549
G1 X95.936 Y118.013 E2.28176
G1 X95.711 Y117.162 E2.31104
G1 X95.668 Y116.952 E2.31817
G1 X95.549 Y116.171 E2.34445
G1 X95.51 Y115.276 E2.37424
G1 X95.513 Y115.066 E2.38123
G1 X95.564 Y114.278 E2.40749
G1 X95.696 Y113.493 E2.43397
G1 X95.742 Y113.285 E2.44105
G1 X95.951 Y112.523 E2.46733
G1 X96.255 Y111.747 E2.49505
G1 X96.343 Y111.553 E2.50214
G1 X96.705 Y110.851 E2.52841
G1 X97.124 Y110.206 E2.55399
G1 X97.197 Y110.105 E2.55813
G1 X97.692 Y109.489 E2.58442
G1 X98.246 Y108.926 E2.61069
G0 F6000 X98.546 Y109.194
G1 F1200 X99.141 Y108.708 E2.63624
G1 X99.784 Y108.286 E2.66182
G1 X100.468 Y107.932 E2.68744
G1 X101.184 Y107.652 E2.71301
G1 X101.925 Y107.448 E2.73857
G1 X102.684 Y107.321 E2.76417
G1 X103.452 Y107.274 E2.78976
G1 X104.22 Y107.307 E2.81533
G1 X104.981 Y107.42 E2.84091
G1 X105.726 Y107.611 E2.86649
G1 X106.448 Y107.878 E2.8921
G1 X107.137 Y108.219 E2.91767
G1 X107.788 Y108.629 E2.94326
G1 X108.522 Y109.222 E2.97464
G1 X119.018 Y118.854 E3.44846
G1 X119.557 Y119.403 E3.47405
G1 X120.036 Y120.004 E3.49961
G1 X120.45 Y120.653 E3.52521
G1 X120.795 Y121.34 E3.55078
G1 X121.066 Y122.06 E3.57637
G1 X121.261 Y122.804 E3.60195
G1 X121.378 Y123.564 E3.62752
G1 X121.415 Y124.333 E3.65313
G1 X121.372 Y125.101 E3.67871
G1 X121.25 Y125.86 E3.70428
G1 X121.05 Y126.603 E3.72987
G1 X120.773 Y127.32 E3.75544
G1 X120.424 Y128.006 E3.78104
G1 X120.005 Y128.651 E3.80662
G1 X119.522 Y129.249 E3.83219
G1 X118.755 Y129.988 E3.86761
G1 X118.574 Y130.139 E3.87545
G1 X117.959 Y130.601 E3.90104
G1 X116.958 Y131.165 E3.93925
G1 X116.769 Y131.253 E3.94619
G1 X116.055 Y131.541 E3.97179
G1 X115.304 Y131.757 E3.99778
G1 X115.104 Y131.803 E4.00461
G1 X114.346 Y131.936 E4.03021
G1 X113.48 Y131.991 E4.05907
G1 X113.269 Y131.992 E4.06608
G1 X112.501 Y131.956 E4.09166
G1 X111.72 Y131.836 E4.11794
G1 X111.519 Y131.794 E4.12477
G1 X110.776 Y131.597 E4.15033
G1 X110.031 Y131.314 E4.17684
G1 X109.844 Y131.231 E4.18364
G1 X109.158 Y130.883 E4.20923
G1 X108.516 Y130.468 E4.23465
G1 X108.34 Y130.341 E4.24187
G1 X107.668 Y129.794 E4.27069
G1 X98.978 Y121.824 E4.66288
G1 X98.838 Y121.692 E4.66928
G1 X98.483 Y121.349 E4.68569
G1 X97.811 Y120.605 E4.71904
G1 X97.622 Y120.365 E4.7292
G1 X97.178 Y119.737 E4.75478
G1 X96.668 Y118.779 E4.79088
G1 X96.584 Y118.589 E4.79779
G1 X96.31 Y117.871 E4.82335
G1 X96.102 Y117.081 E4.85052
G1 X96.059 Y116.871 E4.85765
G1 X95.944 Y116.111 E4.88321
G1 X95.91 Y115.281 E4.91084
G1 X95.913 Y115.071 E4.91783
G1 X95.964 Y114.304 E4.94339
G1 X96.087 Y113.579 E4.96785
G1 X96.133 Y113.371 E4.97494
G1 X96.337 Y112.63 E5.0005
G1 X96.619 Y111.912 E5.02616
G1 X96.707 Y111.718 E5.03324
G1 X97.061 Y111.035 E5.05883
G1 X97.449 Y110.44 E5.08246
G1 X97.522 Y110.339 E5.0866
G1 X98.004 Y109.74 E5.11217
G1 X98.546 Y109.194 E5.13776
G0 F6000 X98.845 Y109.463
G1 F1200 X99.428 Y108.994 E5.16265
G1 X100.057 Y108.59 E5.18751
G1 X100.726 Y108.255 E5.2124
G1 X101.427 Y107.994 E5.23727
G1 X102.152 Y107.809 E5.26216
G1 X102.893 Y107.702 E5.28706
G1 X103.64 Y107.675 E5.31192
G1 X104.386 Y107.728 E5.3368
G1 X105.123 Y107.86 E5.3617
G1 X105.841 Y108.07 E5.38658
G1 X106.532 Y108.356 E5.41146
G1 X107.189 Y108.713 E5.43633
G1 X107.804 Y109.139 E5.46121
G1 X108.252 Y109.517 E5.4807
G1 X118.748 Y119.149 E5.95452
G1 X119.271 Y119.683 E5.97938
G1 X119.735 Y120.27 E6.00427
G1 X120.133 Y120.904 E6.02916
G1 X120.461 Y121.576 E6.05404
G1 X120.715 Y122.279 E6.0789
G1 X120.893 Y123.006 E6.10379
G1 X120.993 Y123.747 E6.12866
G1 X121.012 Y124.495 E6.15355
G1 X120.952 Y125.241 E6.17844
G1 X120.813 Y125.976 E6.20332
G1 X120.596 Y126.692 E6.2282
G1 X120.304 Y127.38 E6.25306
G1 X119.94 Y128.034 E6.27796
G1 X119.508 Y128.645 E6.30284
G1 X119.014 Y129.206 E6.32771
G1 X118.499 Y129.681 E6.35101
G1 X118.318 Y129.832 E6.35885
G1 X117.719 Y130.28 E6.38373
G1 X116.789 Y130.803 E6.41921
G1 X116.6 Y130.891 E6.42615
G1 X115.906 Y131.17 E6.45103
G1 X115.214 Y131.367 E6.47496
G1 X115.014 Y131.413 E6.48178
G1 X114.277 Y131.541 E6.50666
G1 X113.478 Y131.591 E6.53329
G1 X113.267 Y131.592 E6.54031
G1 X112.52 Y131.555 E6.56518
G1 X111.802 Y131.444 E6.58935
G1 X111.601 Y131.402 E6.59618
G1 X110.878 Y131.21 E6.62106
G1 X110.193 Y130.948 E6.64545
G1 X110.006 Y130.865 E6.65226
G1 X109.34 Y130.526 E6.67711
G1 X108.75 Y130.143 E6.70051
G1 X108.574 Y130.016 E6.70773
G1 X107.939 Y129.499 E6.73496
G1 X99.249 Y121.529 E7.12714
G1 X99.116 Y121.404 E7.13321
G1 X98.761 Y121.061 E7.14963
G1 X98.126 Y120.358 E7.18114
G1 X97.937 Y120.118 E7.1913
G1 X97.506 Y119.506 E7.2162
G1 X97.034 Y118.617 E7.24968
G1 X96.95 Y118.427 E7.25658
G1 X96.684 Y117.728 E7.28146
G1 X96.494 Y117.001 E7.30645
G1 X96.451 Y116.791 E7.31358
G1 X96.341 Y116.051 E7.33846
G1 X96.31 Y115.287 E7.3639
G1 X96.313 Y115.077 E7.37088
G1 X96.363 Y114.331 E7.39575
G1 X96.477 Y113.665 E7.41822
G1 X96.523 Y113.457 E7.42531
G1 X96.723 Y112.737 E7.45016
G1 X96.983 Y112.077 E7.47376
G1 X97.071 Y111.883 E7.48084
G1 X97.416 Y111.22 E7.5057
G1 X97.773 Y110.675 E7.52737
G1 X97.846 Y110.574 E7.53151
G1 X98.316 Y109.992 E7.55639
G1 X98.845 Y109.463 E7.58128
G0 F6000 X99.144 Y109.733
G1 F1200 X99.713 Y109.282 E7.60543
G1 X100.329 Y108.896 E7.6296
G1 X100.983 Y108.581 E7.65375
G1 X101.668 Y108.339 E7.67791
G1 X102.375 Y108.174 E7.70206
G1 X103.096 Y108.088 E7.72621
G1 X103.823 Y108.081 E7.75039
G1 X104.545 Y108.154 E7.77453
G1 X105.256 Y108.307 E7.79872
G1 X105.945 Y108.536 E7.82286
G1 X106.605 Y108.84 E7.84703
G1 X107.227 Y109.214 E7.87117
G1 X107.981 Y109.811 E7.90316
G1 X118.477 Y119.443 E8.37698
G1 X118.985 Y119.963 E8.40115
G1 X119.432 Y120.535 E8.4253
G1 X119.813 Y121.154 E8.44947
G1 X120.125 Y121.81 E8.47364
G1 X120.362 Y122.496 E8.49777
G1 X120.522 Y123.205 E8.52195
G1 X120.604 Y123.927 E8.54612
G1 X120.606 Y124.653 E8.57026
G1 X120.528 Y125.375 E8.59442
G1 X120.371 Y126.084 E8.61857
G1 X120.137 Y126.772 E8.64274
G1 X119.829 Y127.43 E8.66691
G1 X119.45 Y128.05 E8.69107
G1 X119.006 Y128.624 E8.71521
G1 X118.243 Y129.374 E8.7508
G1 X118.062 Y129.525 E8.75863
G1 X117.479 Y129.959 E8.78281
G1 X116.62 Y130.44 E8.81555
G1 X116.431 Y130.528 E8.82249
G1 X115.756 Y130.798 E8.84667
G1 X115.124 Y130.977 E8.86851
G1 X114.924 Y131.023 E8.87534
G1 X114.209 Y131.147 E8.89948
G1 X113.476 Y131.191 E8.9239
G1 X113.265 Y131.192 E8.93092
G1 X112.54 Y131.155 E8.95506
G1 X111.884 Y131.052 E8.97715
G1 X111.683 Y131.01 E8.98398
G1 X110.981 Y130.823 E9.00814
G1 X110.355 Y130.582 E9.03045
G1 X110.168 Y130.499 E9.03726
G1 X109.522 Y130.169 E9.06138
G1 X108.984 Y129.819 E9.08273
G1 X108.808 Y129.692 E9.08995
G1 X108.209 Y129.204 E9.11565
G1 X99.519 Y121.234 E9.50783
G1 X99.394 Y121.116 E9.51355
G1 X99.039 Y120.773 E9.52997
G1 X98.44 Y120.11 E9.55968
G1 X98.251 Y119.87 E9.56985
G1 X97.833 Y119.276 E9.594
G1 X97.4 Y118.456 E9.62485
G1 X97.316 Y118.266 E9.63175
G1 X97.059 Y117.586 E9.65593
G1 X96.886 Y116.921 E9.67879
G1 X96.843 Y116.711 E9.68592
G1 X96.737 Y115.992 E9.71009
G1 X96.71 Y115.293 E9.73336
G1 X96.713 Y115.083 E9.74034
G1 X96.763 Y114.358 E9.76451
G1 X96.868 Y113.752 E9.78497
G1 X96.914 Y113.544 E9.79205
G1 X97.109 Y112.844 E9.81622
G1 X97.347 Y112.243 E9.83772
G1 X97.435 Y112.049 E9.84481
G1 X97.771 Y111.405 E9.86897
G1 X98.097 Y110.909 E9.88871
G1 X98.17 Y110.808 E9.89285
G1 X98.627 Y110.243 E9.91702
G1 X99.144 Y109.733 E9.94118
G0 F6000 X99.441 Y110.004
G1 F1200 X99.997 Y109.571 E9.96461
G1 X100.598 Y109.205 E9.98802
G1 X101.237 Y108.909 E10.01144
G1 X101.905 Y108.688 E10.03484
G1 X102.594 Y108.543 E10.05826
G1 X103.295 Y108.478 E10.08168
G1 X103.999 Y108.493 E10.1051
G1 X104.697 Y108.587 E10.12852
G1 X105.379 Y108.76 E10.15193
G1 X106.038 Y109.009 E10.17536
G1 X106.664 Y109.331 E10.19877
G1 X107.249 Y109.722 E10.22217
G1 X107.711 Y110.106 E10.24215
G1 X118.207 Y119.738 E10.71597
G1 X118.698 Y120.243 E10.7394
G1 X119.128 Y120.8 E10.7628
G1 X119.493 Y121.402 E10.78622
G1 X119.787 Y122.042 E10.80964
G1 X120.006 Y122.711 E10.83305
G1 X120.148 Y123.4 E10.85645
G1 X120.212 Y124.101 E10.87986
G1 X120.195 Y124.805 E10.90329
G1 X120.098 Y125.502 E10.92669
G1 X119.924 Y126.184 E10.9501
G1 X119.673 Y126.842 E10.97352
G1 X119.349 Y127.467 E10.99694
G1 X118.956 Y128.051 E11.02035
G1 X118.5 Y128.587 E11.04376
G1 X117.987 Y129.067 E11.06713
G1 X117.806 Y129.218 E11.07496
G1 X117.24 Y129.637 E11.09839
G1 X116.451 Y130.078 E11.12845
G1 X116.262 Y130.166 E11.13538
G1 X115.608 Y130.426 E11.15879
G1 X115.035 Y130.587 E11.17859
G1 X114.835 Y130.633 E11.18541
G1 X114.141 Y130.752 E11.20883
G1 X113.474 Y130.791 E11.23106
G1 X113.263 Y130.792 E11.23807
G1 X112.56 Y130.755 E11.26149
G1 X111.966 Y130.661 E11.28149
G1 X111.765 Y130.619 E11.28832
G1 X111.085 Y130.436 E11.31174
G1 X110.518 Y130.217 E11.33196
G1 X110.331 Y130.134 E11.33876
G1 X109.705 Y129.812 E11.36218
G1 X109.218 Y129.495 E11.3815
G1 X109.042 Y129.368 E11.38872
G1 X108.479 Y128.909 E11.41288
G1 X99.789 Y120.939 E11.80507
G1 X99.672 Y120.829 E11.81041
G1 X99.317 Y120.486 E11.82683
G1 X98.754 Y119.863 E11.85475
G1 X98.565 Y119.623 E11.86491
G1 X98.162 Y119.046 E11.88832
G1 X97.765 Y118.294 E11.91661
G1 X97.681 Y118.104 E11.92352
G1 X97.434 Y117.445 E11.94692
G1 X97.278 Y116.841 E11.96767
G1 X97.235 Y116.631 E11.9748
G1 X97.133 Y115.934 E11.99823
G1 X97.11 Y115.298 E12.0194
G1 X97.113 Y115.088 E12.02638
G1 X97.163 Y114.386 E12.04979
G1 X97.258 Y113.838 E12.06829
G1 X97.304 Y113.63 E12.07537
G1 X97.495 Y112.953 E12.09877
G1 X97.712 Y112.408 E12.11828
G1 X97.8 Y112.214 E12.12537
G1 X98.126 Y111.59 E12.14878
G1 X98.421 Y111.143 E12.1666
G1 X98.494 Y111.042 E12.17074
G1 X98.938 Y110.496 E12.19415
G1 X99.441 Y110.004 E12.21755
G0 F6000 X99.738 Y110.276
G1 F1200 X100.28 Y109.863 E12.24021
G1 X100.866 Y109.516 E12.26286
G1 X101.489 Y109.241 E12.28551
G1 X102.139 Y109.04 E12.30814
G1 X102.809 Y108.918 E12.33079
G1 X103.488 Y108.874 E12.35343
G1 X104.168 Y108.91 E12.37607
G1 X104.839 Y109.026 E12.39872
G1 X105.492 Y109.22 E12.42138
G1 X106.118 Y109.489 E12.44404
G1 X106.707 Y109.829 E12.46666
G1 X107.441 Y110.401 E12.49761
G1 X117.937 Y120.033 E12.97143
G1 X118.41 Y120.522 E12.99406
G1 X118.824 Y121.063 E13.01671
G1 X119.17 Y121.649 E13.03935
G1 X119.446 Y122.271 E13.06198
G1 X119.647 Y122.922 E13.08464
G1 X119.771 Y123.591 E13.10727
G1 X119.815 Y124.271 E13.12994
G1 X119.779 Y124.951 E13.15258
G1 X119.664 Y125.622 E13.17523
G1 X119.471 Y126.275 E13.19787
G1 X119.202 Y126.9 E13.22051
G1 X118.863 Y127.491 E13.24317
G1 X118.456 Y128.037 E13.26582
G1 X117.988 Y128.531 E13.28845
G1 X117.73 Y128.76 E13.29992
G1 X117.549 Y128.911 E13.30776
G1 X117.002 Y129.315 E13.33038
G1 X116.282 Y129.715 E13.35778
G1 X116.093 Y129.803 E13.36471
G1 X115.46 Y130.054 E13.38736
G1 X114.945 Y130.197 E13.40514
G1 X114.745 Y130.243 E13.41196
G1 X114.074 Y130.357 E13.4346
G1 X113.472 Y130.391 E13.45465
G1 X113.261 Y130.392 E13.46167
G1 X112.582 Y130.355 E13.48429
G1 X112.048 Y130.269 E13.50228
G1 X111.847 Y130.227 E13.50911
G1 X111.19 Y130.049 E13.53175
G1 X110.68 Y129.851 E13.54994
G1 X110.493 Y129.768 E13.55675
G1 X109.888 Y129.456 E13.57939
G1 X109.452 Y129.17 E13.59673
G1 X109.276 Y129.043 E13.60395
G1 X108.75 Y128.614 E13.62653
G1 X100.06 Y120.644 E14.01871
G1 X99.95 Y120.541 E14.02372
G1 X99.595 Y120.198 E14.04014
G1 X99.068 Y119.615 E14.06628
G1 X98.879 Y119.375 E14.07644
G1 X98.49 Y118.817 E14.09906
G1 X98.131 Y118.132 E14.12479
G1 X98.047 Y117.942 E14.1317
G1 X97.809 Y117.304 E14.15434
G1 X97.67 Y116.76 E14.17302
G1 X97.627 Y116.55 E14.18015
G1 X97.53 Y115.877 E14.20276
G1 X97.51 Y115.304 E14.22183
G1 X97.513 Y115.094 E14.22882
G1 X97.562 Y114.415 E14.25146
G1 X97.649 Y113.925 E14.26801
G1 X97.695 Y113.717 E14.2751
G1 X97.881 Y113.062 E14.29775
G1 X98.076 Y112.573 E14.31525
G1 X98.164 Y112.379 E14.32234
G1 X98.481 Y111.777 E14.34497
G1 X98.745 Y111.377 E14.36091
G1 X98.818 Y111.276 E14.36505
G1 X99.249 Y110.749 E14.3877
G1 X99.738 Y110.276 E14.41033
G0 F6000 X100.034 Y110.549
G1 F1200 X100.561 Y110.156 E14.43219
G1 X101.131 Y109.831 E14.45401
G1 X101.737 Y109.576 E14.47588
G1 X102.369 Y109.398 E14.49772
G1 X103.019 Y109.297 E14.5196
G1 X103.675 Y109.276 E14.54143
G1 X104.33 Y109.335 E14.5633
G1 X104.972 Y109.473 E14.58514
G1 X105.593 Y109.688 E14.607
G1 X106.183 Y109.977 E14.62885
G1 X106.733 Y110.335 E14.65068
G1 X107.17 Y110.695 E14.66951
G1 X117.666 Y120.327 E15.14333
G1 X118.122 Y120.8 E15.16518
G1 X118.518 Y121.325 E15.18705
G1 X118.846 Y121.894 E15.20889
G1 X119.103 Y122.498 E15.23073
G1 X119.285 Y123.13 E15.2526
G1 X119.389 Y123.778 E15.27443
G1 X119.413 Y124.435 E15.2963
G1 X119.358 Y125.089 E15.31812
G1 X119.223 Y125.732 E15.33998
G1 X119.011 Y126.354 E15.36183
G1 X118.726 Y126.946 E15.38369
G1 X118.37 Y127.498 E15.40553
G1 X117.95 Y128.004 E15.4274
G1 X117.474 Y128.453 E15.44917
G1 X117.293 Y128.604 E15.45701
G1 X116.764 Y128.993 E15.47885
G1 X116.113 Y129.352 E15.50357
G1 X115.924 Y129.44 E15.51051
G1 X115.313 Y129.681 E15.53235
G1 X114.855 Y129.808 E15.54816
G1 X114.655 Y129.854 E15.55499
G1 X114.007 Y129.962 E15.57684
G1 X113.471 Y129.991 E15.59469
G1 X113.26 Y129.992 E15.60171
G1 X112.604 Y129.955 E15.62356
G1 X112.129 Y129.878 E15.63957
G1 X111.928 Y129.836 E15.6464
G1 X111.295 Y129.663 E15.66822
G1 X110.842 Y129.486 E15.6844
G1 X110.655 Y129.403 E15.6912
G1 X110.072 Y129.1 E15.71306
G1 X109.686 Y128.846 E15.72843
G1 X109.51 Y128.719 E15.73564
G1 X109.02 Y128.32 E15.75666
G1 X100.33 Y120.35 E16.14884
G1 X99.873 Y119.91 E16.16994
